dist/icons/svgs/arrow-left-long-solid.svg

<svg xmlns="http://www.w3.org/2000/svg" width="24" height="24" fill="currentcolor" class="icon-arrow-left-long-solid" viewBox="0 0 24 24">
  <path d="M2.35156 11.1406L7.35156 6.14062C7.82031 5.63281 8.64062 5.63281 9.10938 6.14062C9.61719 6.60938 9.61719 7.42969 9.10938 7.89844L6.25781 10.75H20.75C21.4141 10.75 22 11.3359 22 12C22 12.7031 21.4141 13.25 20.75 13.25H6.25781L9.10938 16.1406C9.61719 16.6094 9.61719 17.4297 9.10938 17.8984C8.64062 18.4062 7.82031 18.4062 7.35156 17.8984L2.35156 12.8984C1.84375 12.4297 1.84375 11.6094 2.35156 11.1406Z"/>
</svg>

<svg xmlns="http://www.w3.org/2000/svg" width="24" height="24" fill="currentColor" class="icon-arrow-left-long-solid" viewBox="0 0 24 24">
  <path d="m2.352 11.14 5-5a1.205 1.205 0 0 1 1.757 0c.508.47.508 1.29 0 1.758L6.258 10.75H20.75c.664 0 1.25.586 1.25 1.25 0 .703-.586 1.25-1.25 1.25H6.258l2.851 2.89c.508.47.508 1.29 0 1.758a1.205 1.205 0 0 1-1.757 0l-5-5a1.205 1.205 0 0 1 0-1.757"/>
</svg>
